X:267
T: Kuaihao 
N: C1764
O: China,Shandong Wenshang
S: III, 341]
R: Haozi]
M: 2/4
L: 1/16
K: E
c4B4 | G2GBG4 |
B4C2C2 | EFC2E4 |
B3GB3G | B2E2F4 |
B4C2C2 | EFC2E4 |
E3FG2G2 | E2FEC4 |
B4C2C2 | EFC2E4 |
c2cBGBG2 | c3BG2G2 |
G4F2F2 | F2C2E4

@@@ Tune index: 6822
